X:1
T:On the Road to Fairfax County
M:4/4
L:1/4
K:A
 A| A2 z2| z G G F| F2 E2| z2 z A| A3 z| z B c d| B4| z2 z a| a4-|\
 a g g f| f2- e2-| e z2e/2-f/2| f3 z| z e d c| B4| z2 z E/2A/2| A3 z|\
 z B/2 B/2- c d| d2 c2| z2 z E| f4-| f e/2 d3/2 c| B4| z2 z a| a4-|\
 a g/2 g/2- f f| f2 e2| z2 z e| f4-| f e d c| B4| z2 z||
